icons/share-16-f.svg

<svg xmlns="http://www.w3.org/2000/svg" viewBox="0 0 16 16"><title>share-16-f</title><g id="icons"><path d="M1,1H9V2H2V14H14V9h1v6H1ZM6.02051,8.521v2.39013H7V8.521a3.50424,3.50424,0,0,1,3.5-3.5h2.77161L11.64648,6.64648l.707.707,2.80859-2.80909L12.35352,1.73535l-.707.707L13.22473,4.021H10.52051A4.50491,4.50491,0,0,0,6.02051,8.521Z"/></g></svg>

<svg xmlns="http://www.w3.org/2000/svg" viewBox="0 0 16 16"><path d="M1 1h8v1H2v12h12V9h1v6H1zm5.02 7.521v2.39H7v-2.39a3.504 3.504 0 013.5-3.5h2.772l-1.626 1.625.707.707 2.81-2.809-2.81-2.809-.706.707 1.578 1.579H10.52a4.505 4.505 0 00-4.5 4.5z"/></svg>
